src/images/geo_tag.svg

<svg width="22" height="22" viewBox="0 0 22 22" fill="none" xmlns="http://www.w3.org/2000/svg">
<path d="M5.16636 3.33918C8.38818 0.108944 13.6118 0.108944 16.8336 3.33918C20.0555 6.56942 20.0555 11.8067 16.8336 15.0369L11 20.6248L5.16636 15.0369C1.94455 11.8067 1.94455 6.56942 5.16636 3.33918ZM11 12.1958C12.6569 12.1958 14 10.8492 14 9.18799C14 7.52681 12.6569 6.18018 11 6.18018C9.34315 6.18018 8.00001 7.52681 8.00001 9.18799C8.00001 10.8492 9.34315 12.1958 11 12.1958Z" fill="#252525"/>
</svg>

<svg width="22" height="22" fill="none" xmlns="http://www.w3.org/2000/svg"><path d="M5.166 3.34a8.235 8.235 0 0 1 11.668 0 8.287 8.287 0 0 1 0 11.697L11 20.625l-5.834-5.588a8.287 8.287 0 0 1 0-11.698ZM11 12.195c1.657 0 3-1.347 3-3.008a3.004 3.004 0 0 0-3-3.008c-1.657 0-3 1.347-3 3.008a3.004 3.004 0 0 0 3 3.008Z" fill="#252525"/></svg>
